!!!COM: Lavallee, Calixa
!!!CDT: 1842-1891
!!!OTL: National Anthem, Canada
!!!ENC: Davis, Matthew J.
!!Vocal Line Only
**kern
*clefG2
*k[b-e-a-]
*E-:
*M4/4
=1-
!Verse
2g
4.b-
8b-
=2
2.e-
4f
=3
4g
4a-
4b-
4cc
=4
2.f
4r
=5
2g
4.an
8an
=6
2.b-
4cc
=7
4dd
4dd
4cc
4cc
=8
2.b-
8.f
16g
=9
4.a-
8g
4f
8.g
16a-
=10
4.b-
16a-
4g
8.a-
16b-
=11
4cc
4b-
4a-
4g
=12
2.f
8.f
16g
=13
4.a-
8g
4f
8.g
16a-
=14
4.b-
8a-
4g
4g
=15
4f
4b-
8b-
4an
4g
4an
=16
1b-
==17
!Chorus
2g
4.b-
8b-
=18
2.e-
4r
=19
2a-
4.cc
8cc
=20
2f
4f
4r
=21
2b-
4.bn
8bn
=22
4cc
4a-
4g
4f
=23
2e-
2f
=24
2.g
4r
=25
2b-
4.ee-
8ee-
=26
4cc
4a-
4g
4f
=27
2b-
2d
1e-
==|!
*-
